X: 22187
T: La Belle Pauline
R: reel
M: 4/4
K: Dmajor
|:A/B/c|d2 dA FD F/G/A|Beed cABc|d/e/d dA FDDF|GEAG FD:|
c/d/e|fdAd fdAd|efga b2 ag|fdad fddf|gbag fd d2|
fd[Aa]d fd d2|efga b/c'/b ag|fAdA gBed|caBc d2||

